Modules/BetterCms.Module.Root/Scss/base_64/icons/overlay-edit-child.svg

<svg xmlns="http://www.w3.org/2000/svg" width="16" height="16" viewBox="0 0 16 16">
 <path fill="#fff" fill-rule="evenodd" d="m15.979 10.524c0 .009.005.017.005.025 0 .498-.279.916-.679 1.178l-3.796 3.832c-.285.287-.669.432-1.053.432-.356 0-.713-.124-.992-.374-.582-.522-.609-1.393-.06-1.947l1.651-1.668h-5.611c-3.605 0-5.432-1.763-5.432-5.24v-5.306c0-.802.681-1.453 1.523-1.453.841 0 1.523.651 1.523 1.453v5.306c0 1.752.345 2.335 2.386 2.335h5.723l-1.763-1.78c-.549-.554-.522-1.425.06-1.947.581-.52 1.497-.495 2.045.058l4.082 4.121c.271.273.396.625.388.975"/>
</svg>

<svg xmlns="http://www.w3.org/2000/svg" preserveAspectRatio="xMidYMid" width="16" height="16" viewBox="0 0 16 16">
  <path fill="#ffffff" fill-rule="evenodd" d="M15.979,10.524 C15.979,10.533 15.984,10.541 15.984,10.549 C15.984,11.047 15.705,11.465 15.305,11.727 L11.509,15.559 C11.224,15.846 10.840,15.991 10.456,15.991 C10.100,15.991 9.743,15.867 9.464,15.617 C8.882,15.095 8.855,14.224 9.404,13.670 L11.055,12.002 L5.444,12.002 C1.839,12.002 0.012,10.239 0.012,6.762 L0.012,1.456 C0.012,0.654 0.693,0.003 1.535,0.003 C2.376,0.003 3.058,0.654 3.058,1.456 L3.058,6.762 C3.058,8.514 3.403,9.097 5.444,9.097 L11.167,9.097 L9.404,7.317 C8.855,6.763 8.882,5.892 9.464,5.370 C10.045,4.850 10.961,4.875 11.509,5.428 L15.591,9.549 C15.862,9.822 15.987,10.174 15.979,10.524 Z"/>
</svg>
